assets/img/icons/socials-yt.svg

<svg width="32" height="32" viewBox="0 0 32 32" fill="none" xmlns="http://www.w3.org/2000/svg">
<rect width="32" height="32" rx="16" fill="white"/>
<path d="M24.9422 11.4149C24.7276 10.5955 24.0952 9.94968 23.2918 9.73045C21.8366 9.33301 15.9993 9.33301 15.9993 9.33301C15.9993 9.33301 10.1621 9.33301 8.70613 9.73045C7.90346 9.94968 7.27113 10.5947 7.05646 11.4149C6.66602 12.9005 6.66602 15.9997 6.66602 15.9997C6.66602 15.9997 6.66602 19.0988 7.05646 20.5845C7.27113 21.4038 7.90346 22.0497 8.7069 22.2689C10.1621 22.6663 15.9993 22.6663 15.9993 22.6663C15.9993 22.6663 21.8366 22.6663 23.2926 22.2689C24.0952 22.0497 24.7276 21.4046 24.943 20.5845C25.3327 19.0988 25.3327 15.9997 25.3327 15.9997C25.3327 15.9997 25.3327 12.9005 24.9422 11.4149ZM14.0907 18.8141V13.1852L18.9689 15.9997L14.0907 18.8141Z" fill="#AD2C2C"/>
</svg>

<svg width="32" height="32" fill="none" xmlns="http://www.w3.org/2000/svg"><rect width="32" height="32" rx="16" fill="#fff"/><path d="M24.942 11.415a2.363 2.363 0 0 0-1.65-1.685c-1.455-.397-7.293-.397-7.293-.397s-5.837 0-7.293.397a2.362 2.362 0 0 0-1.65 1.685C6.666 12.9 6.666 16 6.666 16s0 3.099.39 4.584c.215.82.847 1.466 1.65 1.685 1.456.397 7.293.397 7.293.397s5.838 0 7.294-.397a2.364 2.364 0 0 0 1.65-1.684c.39-1.486.39-4.585.39-4.585s0-3.1-.39-4.585Zm-10.851 7.4v-5.63L18.969 16l-4.878 2.814Z" fill="#AD2C2C"/></svg>
